!!!OTL: ICH STAND AUF HOHEM BERGE
!!!ARE: Europa, Mitteleuropa, Deutschland, Lahnkreis; Dillkreis; Rheinland
!!!SCT: E0115
!!!YEM: Copyright 1995, estate of Helmut Schaffrath.
**kern
*ICvox
*Ivox
*M3/4
*k[f#]
*G:
{4g
=1
4g
4d
8b
8b
=2
4b
4g}
{4dd
=3
4ee
4dd
8cc
8cc
=4
2b}
{8g
8g
=5
4ee
8ee
8ee
8gg
8ee
=6
8ee
8dd
4dd}
{8dd
8gg
=7
4ee
4dd
8cc
8cc
=8
2b}
==
!!!AGN: erzaehlendes Volks - Lied, Schalk -, Schelmen - Lied, betrogene Liebe     Ballade ?
!!!ONB: ESAC (Essen Associative Code) Database: ERK1
!!!AMT: simple triple
!!!AIN: vox
!!!EED: Helmut Schaffrath
!!!EEV: 1.0
*-
!!!title: @{OTL} [@{SCT}]
